src/icons/pad-lock.icon.svg

<svg width="24px" height="24px" viewBox="0 0 24 24" version="1.1" xmlns="http://www.w3.org/2000/svg" xmlns:xlink="http://www.w3.org/1999/xlink">
    <!-- Generator: Sketch 49.2 (51160) - http://www.bohemiancoding.com/sketch -->
    <title>IconPadlock</title>
    <desc>Created with Sketch.</desc>
    <defs></defs>
    <g id="Page-1" stroke="none" stroke-width="1" fill="none" fill-rule="evenodd">
        <g id="IconPadlock">
            <path d="M18,8.66666667 L17,8.66666667 L17,6.76190476 C17,4.13333333 14.76,2 12,2 C9.24,2 7,4.13333333 7,6.76190476 L7,8.66666667 L6,8.66666667 C4.9,8.66666667 4,9.52380952 4,10.5714286 L4,20.0952381 C4,21.1428571 4.9,22 6,22 L18,22 C19.1,22 20,21.1428571 20,20.0952381 L20,10.5714286 C20,9.52380952 19.1,8.66666667 18,8.66666667 Z M12,17.2380952 C10.9,17.2380952 10,16.3809524 10,15.3333333 C10,14.2857143 10.9,13.4285714 12,13.4285714 C13.1,13.4285714 14,14.2857143 14,15.3333333 C14,16.3809524 13.1,17.2380952 12,17.2380952 Z M15.1,8.66666667 L8.9,8.66666667 L8.9,6.76190476 C8.9,5.13333333 10.29,3.80952381 12,3.80952381 C13.71,3.80952381 15.1,5.13333333 15.1,6.76190476 L15.1,8.66666667 Z" id="Shape" fill="currentColor" fill-rule="nonzero"></path>
        </g>
    </g>
</svg>

<svg xmlns="http://www.w3.org/2000/svg" viewBox="0 0 24 24"><path d="M18 8.667h-1V6.762C17 4.133 14.76 2 12 2S7 4.133 7 6.762v1.905H6c-1.1 0-2 .857-2 1.904v9.524C4 21.143 4.9 22 6 22h12c1.1 0 2-.857 2-1.905v-9.524c0-1.047-.9-1.904-2-1.904zm-6 8.571c-1.1 0-2-.857-2-1.905 0-1.047.9-1.904 2-1.904s2 .857 2 1.904c0 1.048-.9 1.905-2 1.905zm3.1-8.571H8.9V6.762c0-1.629 1.39-2.952 3.1-2.952 1.71 0 3.1 1.323 3.1 2.952v1.905z" fill="currentColor"/></svg>
